X:17
T:FRISKY/Kilty Lads # 4
M:6/8
L:1/8
Q:116
S:Kerr's
R:Jig
K:Em
|:"Bm" F|"Em"E2F "/B"G2F|"C"E2F "/E"G2F|"G"G2B "/B"d2B|"D"AFD "/A" DEF|!
"Em"E2F "/B"G2A|"Em"B "/D" 2B "C" e3|"G"dBB "Bm" BAB|"Em" GEE "/B" E2| !
|B|"Em"e2e "/B" B2B|"Em"e2e "/B"B2^c|"G"d2B "/B"A2G|"D"F2E "/A"D2B|!
"Em"e2e "B"B2B | "Em"e2e "/G"B2^c |1"D"d2B "/A" A2G | "Bm" F2D"/F#" A2:|2 "Bm" d2 B "/D" A2 F | "Em" E3 "Em" E2 ||
